symbols/web/safety_check/materialsymbolsoutlined/safety_check_40px.svg

<svg xmlns="http://www.w3.org/2000/svg" height="40" width="40"><path d="M20 36.625q-5.833-1.458-9.583-6.729t-3.75-11.604v-10l13.333-5 13.333 5v10q0 6.333-3.75 11.604-3.75 5.271-9.583 6.729Zm0-16.333Zm0 13.458q4.625-1.5 7.583-5.812 2.959-4.313 2.959-9.646V10.25L20 6.25l-10.542 4v8.042q0 5.333 2.959 9.646Q15.375 32.25 20 33.75Zm0-5.625q3.333 0 5.729-2.396t2.396-5.771q0-3.333-2.396-5.729T20 11.833q-3.333 0-5.729 2.396t-2.396 5.729q0 3.375 2.396 5.771T20 28.125Zm2.958-4.042-3.916-3.708v-5.583h1.708v5l3.375 3.166Z"/></svg>

<svg xmlns="http://www.w3.org/2000/svg" height="40" width="40"><path d="M20 36.625Q14.167 35.167 10.417 29.896Q6.667 24.625 6.667 18.292V8.292L20 3.292L33.333 8.292V18.292Q33.333 24.625 29.583 29.896Q25.833 35.167 20 36.625ZM20 20.292Q20 20.292 20 20.292Q20 20.292 20 20.292Q20 20.292 20 20.292Q20 20.292 20 20.292ZM20 33.75Q24.625 32.25 27.583 27.938Q30.542 23.625 30.542 18.292V10.25L20 6.25L9.458 10.25V18.292Q9.458 23.625 12.417 27.938Q15.375 32.25 20 33.75ZM20 28.125Q23.333 28.125 25.729 25.729Q28.125 23.333 28.125 19.958Q28.125 16.625 25.729 14.229Q23.333 11.833 20 11.833Q16.667 11.833 14.271 14.229Q11.875 16.625 11.875 19.958Q11.875 23.333 14.271 25.729Q16.667 28.125 20 28.125ZM22.958 24.083 19.042 20.375V14.792H20.75V19.792L24.125 22.958Z"/></svg>
